!!!COA:	Josquin des Prez
!!!CDT:	~1450-1521/08/27
!!!OTL@@LAT: Domine, ne in furore
!!!OTL2@@LAT: Turbatus est a furore
!!!AGN:	Motet
!!!SCT:	NJE 16.7
!!!SCA:	New Josquin Edition 16.7
!!!voices:	4
**kern	**kern	**kern	**kern
*staff4	*staff3	*staff2	*staff1
*Ivox	*Ivox	*Ivox	*Ivox
*I"Bassus	*I"Tenor	*I"Altus	*I"Discantus
*I'B	*I'T	*I'A	*I'D
*>[A,B]	*>[A,B]	*>[A,B]	*>[A,B]
*>Part1[A]	*>Part1[A]	*>Part1[A]	*>Part1[A]
*>Part2[B]	*>Part2[B]	*>Part2[B]	*>Part2[B]
*clefF4	*clefGv2	*clefGv2	*clefG2
*>A	*>A	*>A	*>A
*k[]	*k[]	*k[]	*k[]
*M2/1	*M2/1	*M2/1	*M2/1
*met(C|)	*met(C|)	*met(C|)	*met(C|)
=1-	=1-	=1-	=1-
0r	0r	1r	1.a
.	.	[1d	.
.	.	.	2a/
=2	=2	=2	=2
0r	0r	2d\]	1a
.	.	2d\	.
.	.	1d	1b
=3	=3	=3	=3
0r	0r	1e	1.cc
.	.	2.f\	.
.	.	.	2a/
.	.	4f\	.
=4	=4	=4	=4
0r	0r	2e\	2b\
.	.	2e\	2cc\
.	.	[1d	1dd
=5	=5	=5	=5
0r	0r	2d\]	1.a
.	.	4c\	.
.	.	4B\	.
.	.	2A/	.
.	.	2d\	4g/
.	.	.	4f/
=6	=6	=6	=6
0r	0r	2c\	2e/
.	.	2f\	2a/
.	.	2e\	2g/
.	.	4d\	2cc\
.	.	4c\	.
=7	=7	=7	=7
0r	0r	4d\	2b\
.	.	4c\	.
.	.	4B\	1a
.	.	4A/	.
.	.	1B	.
.	.	.	2g#i/
=8	=8	=8	=8
0r	0r	2r	1a
.	.	2A/	.
.	.	2B\	2r
.	.	2c\	2e/
=9	=9	=9	=9
0r	0r	2d\	2f/
.	.	2B\	2g/
.	.	2c\	2a/
.	.	2d\	2f/
=10	=10	=10	=10
0r	0r	2r	2g/
.	.	2A/	2a/
.	.	2B\	2r
.	.	2c\	2e/
=11	=11	=11	=11
0r	0r	2d\	2f/
.	.	2.e\	2g/
.	.	.	2a/
.	.	4f\	.
.	.	[2d\	4g/
.	.	.	4f/
=12	=12	=12	=12
1r	1.A	2d\]	4e/
.	.	.	4d/
.	.	2c#i\	2e/
[1D	.	1d	1d
.	2A/	.	.
=13	=13	=13	=13
2D\]	1A	0r	0r
2D\	.	.	.
1D	1B	.	.
=14	=14	=14	=14
1E	1.c	0r	0r
2.F\	.	.	.
.	2A/	.	.
4F\	.	.	.
=15	=15	=15	=15
2E\	2B\	0r	0r
2E\	2c\	.	.
[1D	1d	.	.
=16	=16	=16	=16
2D\]	1.A	0r	0r
4C/	.	.	.
4BB/	.	.	.
2AA/	.	.	.
2D\	4G/	.	.
.	4F/	.	.
=17	=17	=17	=17
2C/	2E/	0r	0r
2F\	2A/	.	.
2E\	2G/	.	.
4D\	2c\	.	.
4C/	.	.	.
=18	=18	=18	=18
4D\	2B\	0r	0r
4C/	.	.	.
4BB/	1A	.	.
4AA/	.	.	.
1BB	.	.	.
.	2G#i/	.	.
=19	=19	=19	=19
2r	1A	0r	0r
2AA/	.	.	.
2BB/	2r	.	.
2C/	2E/	.	.
=20	=20	=20	=20
2D\	2F/	0r	0r
2BB/	2G/	.	.
2C/	2A/	.	.
2D\	2F/	.	.
=21	=21	=21	=21
2r	2G/	0r	0r
2AA/	2A/	.	.
2BB/	2r	.	.
2C/	2E/	.	.
=22	=22	=22	=22
2D\	2F/	0r	0r
2.E\	2G/	.	.
.	2A/	.	.
4D\	.	.	.
[2D\	4G/	.	.
.	4F/	.	.
=23	=23	=23	=23
2D\]	4E/	0r	0r
.	4D/	.	.
2C#i/	2E/	.	.
1D	1D	.	.
=24	=24	=24	=24
1.D	1.A	1.f	1.dd
2D\	2A/	2f\	2dd\
=25	=25	=25	=25
2D\	2A/	2f\	2dd\
2D\	2A/	2f\	2dd\
1D	1A	1f	1dd
=26	=26	=26	=26
1AA	1A	1e	1cc
[1A	[1c	[1e	[1cc
=27	=27	=27	=27
2A\]	2c\]	2e\]	2cc\]
2A\	2c\	2f\	2cc\
1G	[1d	1g	1b
=28	=28	=28	=28
0r	1d]	2r	2r
.	.	1f	1a
.	1r	.	.
.	.	2e\	2g/
=29	=29	=29	=29
0r	0r	2f\	2a/
.	.	2e\	2g/
.	.	2f\	2a/
.	.	2e\	2g/
=30	=30	=30	=30
2r	2r	1c	[0e
1A	1c	.	.
.	.	1r	.
2G\	2B\	.	.
=31	=31	=31	=31
2A\	2c\	0r	0e_
2G\	2B\	.	.
2A\	2c\	.	.
2G\	2B\	.	.
=32	=32	=32	=32
0E	0G	0B	0e]
=33	=33	=33	=33
0E	0B	0e	0g
=34	=34	=34	=34
1E	1B	1e	1g
1E	1B	1e	1g
=35	=35	=35	=35
1.A	1.c	1.e	1.a
2D\	2A/	2d\	2f/
=36	=36	=36	=36
1D	1A	1d	1f
1r	1c	1e	2r
.	.	.	[2cc\
=37	=37	=37	=37
2r	2A/	1c	2cc\]
1F	1A	.	2a/
.	.	2r	1a
2D\	[2d\	[2f\	.
=38	=38	=38	=38
1D	2d\]	2f\]	1dd
.	2d\	2d\	.
1G	2B\	1d	2dd\
.	2B\	.	[2b\
=39	=39	=39	=39
2G\	1.G	1g	2b\]
1E	.	.	2g/
.	.	2g\	1g
2C/	[2c\	[2e\	.
=40	=40	=40	=40
1C	2c\]	2e\]	1cc
.	4B\	2c\	.
.	4A/	.	.
2G\	2G/	2d\	2b\
2F\	2A/	[2f\	[2a/
=41	=41	=41	=41
1D	2F/	4f\]	2a/]
.	.	4e\	.
.	1A	1d	4g/
.	.	.	4f/
1E	.	.	1g
.	2G/	2c#i\	.
=42	=42	=42	=42
[0D	[0A	0d	0f
=43	=43	=43	=43
0D]	0A]	2r	1r
.	.	2d\	.
.	.	2f\	1a
.	.	2f\	.
=44	=44	=44	=44
0r	0r	1e	2cc\
.	.	.	2cc\
.	.	[1d	1b
=45	=45	=45	=45
0r	0r	2d\]	1.a
.	.	4c\	.
.	.	4B\	.
.	.	1A	.
.	.	.	4g/
.	.	.	4f/
=46	=46	=46	=46
0r	0r	2r	1e
.	.	2A/	.
.	.	2A/	2r
.	.	2A/	2e/
=47	=47	=47	=47
0r	0r	2.c\	2e/
.	.	.	2e/
.	.	4B\	.
.	.	2.G/	2.g/
.	.	4A/	4f/
=48	=48	=48	=48
0r	0r	4B\	4d/
.	.	4c\	4e/
.	.	1d	1f
.	.	4c\	4e/
.	.	4B\	4d/
=49	=49	=49	=49
2r	2r	2c\	0a
1A	1c	1f	.
2A\	2c\	2f\	.
=50	=50	=50	=50
1B-i	1d	1g	0r
2A\	2c\	2f\	.
2G\	2B\	2e\	.
=51	=51	=51	=51
2F\	2A/	2d\	1r
2E\	2G/	2c#i\	.
[1D	[1A	2d\	2r
.	.	[2f\	[2a/
=52	=52	=52	=52
1D]	1A]	2f\]	2a/]
.	.	2f\	2a/
1r	1r	1g	1b-i
=53	=53	=53	=53
0r	1r	2f\	2a/
.	.	2e\	2g/
.	2r	2d\	2f/
.	2A/	2c#i\	2e/
=54	=54	=54	=54
1D	1.d	0d	0d
[1G	.	.	.
.	2d\	.	.
=55	=55	=55	=55
2G\]	1d	0r	0r
2G\	.	.	.
1G	2B\	.	.
.	2B\	.	.
=56	=56	=56	=56
2E\	1e	0r	0r
2E\	.	.	.
1A	2r	.	.
.	2e\	.	.
=57	=57	=57	=57
2r	2c\	0r	0r
2A\	2c\	.	.
2F\	2A/	.	.
2F\	[2d\	.	.
=58	=58	=58	=58
2D\	2d\]	0r	0r
1G	2B\	.	.
.	2d\	.	.
2E\	2e\	.	.
=59	=59	=59	=59
4F\	4d\	0r	0r
4E\	4c\	.	.
1A	4B\	.	.
.	4A/	.	.
.	1B	.	.
2G#i\	.	.	.
=60	=60	=60	=60
1A	1A	1r	1r
1D	1d	1f	1a
=61	=61	=61	=61
1F	1c	1f	1a
1F	1A	1f	1a
=62	=62	=62	=62
1C	1.c	1e	1g
1C	.	1e	1cc
.	2c\	.	.
=63	=63	=63	=63
2G\	2d\	2d\	2b\
2G\	2d\	2g\	2b\
2A\	2c\	2g\	2a/
2A\	2c\	2f\	2a/
=64	=64	=64	=64
2G\	2B\	2g\	1dd
2G\	2B\	2g\	.
2A\	2A/	2e\	2cc\
2E\	2e\	[2g\	[2b\
=65	=65	=65	=65
2G\	4d\	2g\]	4b\]
.	4c\	.	4a/
2A\	4B\	2f\	1a
.	4A/	.	.
1E	1B	1e	.
.	.	.	2g#i/
=66	=66	=66	=66
0AA	0A	1c	0a
.	.	2r	.
.	.	2A/	.
=67	=67	=67	=67
0r	0r	2c\	2r
.	.	2c\	2e/
.	.	1B	2g/
.	.	.	2g/
=68	=68	=68	=68
0r	0r	1A	1f
.	.	1c	1e
=69	=69	=69	=69
0r	0r	1B	1g
.	.	1A	1f
=70	=70	=70	=70
0r	0r	2r	1e
.	.	2e\	.
.	.	1g	2r
.	.	.	2b\
=71	=71	=71	=71
0r	0r	2g\	1dd
.	.	2g\	.
.	.	1f	2dd\
.	.	.	2dd\
=72	=72	=72	=72
2r	1r	0e	1cc
1A	.	.	.
.	2r	.	1b
2G\	[2e\	.	.
=73	=73	=73	=73
2A\	2e\]	1r	1r
2F\	2d\	.	.
[1E	2e\	2.e\	2r
.	2c\	.	[2a/
.	.	4e\	.
=74	=74	=74	=74
1E]	1B	2e\	2a/]
.	.	2e\	2g/
[1AA	1A	[1c	2a/
.	.	.	2f/
=75	=75	=75	=75
1AA]	2r	1c]	1e
.	2c\	.	.
2r	2c\	1c	2e/
2A\	2A/	.	2cc\
=76	=76	=76	=76
2A\	2c\	2r	2cc\
2G\	2G/	2e\	2b\
2A\	2c\	2e\	2cc\
2F\	2d\	2d\	2a/
=77	=77	=77	=77
1E	0B	2.e\	1g
.	.	4e\	.
1E	.	2e\	1g
.	.	2e\	.
=78	=78	=78	=78
0AA	1A	1.c	0e
.	2r	.	.
.	[2c\	4B\	.
.	.	4A/	.
=79	=79	=79	=79
2r	2c\]	0A	0r
1F	2c\	.	.
.	1A	.	.
2F\	.	.	.
=80	=80	=80	=80
1D	2.d\	0r	0r
.	4c\	.	.
2.G\	4B\	.	.
.	4A/	.	.
.	2G/	.	.
4F\	.	.	.
=81	=81	=81	=81
4E\	2r	0r	0r
4D\	.	.	.
2C/	2G/	.	.
2F\	2A/	.	.
2G\	2B\	.	.
=82	=82	=82	=82
2A\	2c\	0r	1r
1B	1d	.	.
.	.	.	1d
4A\	4c\	.	.
4G\	4B\	.	.
=83	=83	=83	=83
1A	0c	1A	1a
1r	.	1e	2g/
.	.	.	2e/
=84	=84	=84	=84
0r	0r	2d\	2f/
.	.	2B\	2g/
.	.	2c\	2a/
.	.	2d\	2a/
=85	=85	=85	=85
1r	0r	2e\	2g/
.	.	2e\	1cc
1G	.	2e\	.
.	.	2g\	2b\
=86	=86	=86	=86
2A\	0r	2f\	1a
2B\	.	2f\	.
1c	.	1e	[1g
=87	=87	=87	=87
2B\	2r	2r	1g]
2G\	2d\	2g\	.
2.c\	2.e\	2.a\	2r
.	.	.	2g/
4B\	4d\	4g\	.
=88	=88	=88	=88
2A\	4c\	4f\	2a/
.	4B\	4e\	.
2G\	2.d\	2.g\	2b\
1A	.	.	1cc
.	4c\	4f#i\	.
.	4c\	4f#i\	.
.	4B\	4e\	.
=89	=89	=89	=89
1G	1d	1g	2b\
.	.	.	2g/
1C	2.e\	2g\	2.cc\
.	.	2e\	.
.	4d\	.	4b\
=90	=90	=90	=90
2D\	2d\	2f\	2a/
2E\	2B\	2e\	2g/
1AA	1c	1e	1a
=91	=91	=91	=91
0El	0Bl	0el	0gl
!!LO:LB:i:g=z
=92||	=92||	=92||	=92||
*>B	*>B	*>B	*>B
!!section: Secunda pars: Turbatus est a furore
!!!OMD: Secunda pars: Turbatus est a furore
*M2/1	*M2/1	*M2/1	*M2/1
*met(C|)	*met(C|)	*met(C|)	*met(C|)
0r	0r	1d	0r
.	.	2d\	.
.	.	2d\	.
=93	=93	=93	=93
0r	0r	1c	1a
.	.	2f\	2a/
.	.	2f\	2a/
=94	=94	=94	=94
0r	1r	4e\	1g
.	.	4d\	.
.	.	4c\	.
.	.	4B\	.
.	1A	4A/	[1cc
.	.	4B\	.
.	.	4c\	.
.	.	4d\	.
=95	=95	=95	=95
0r	2A/	2e\	2cc\]
.	2A/	2f\	2cc\
.	1G	1g	4b\
.	.	.	4a/
.	.	.	4g/
.	.	.	4f/
=96	=96	=96	=96
1AA	1.c	2r	0e
.	.	2c\	.
2AA/	.	2e\	.
2AA/	2c\	2f\	.
=97	=97	=97	=97
1GG	4B\	1g	1b
.	4A/	.	.
.	4G/	.	.
.	4F/	.	.
[1C	2.E/	2r	[1cc
.	.	[2G/	.
.	4F/	.	.
=98	=98	=98	=98
2C/]	4G/	4G/]	2cc\]
.	4E/	4F/	.
2C/	1A	1E	2cc\
1BB	.	.	1dd
.	2G#i/	2D/	.
=99	=99	=99	=99
1AA	1A	2E/	0cc
.	.	2e\	.
1A	1c	1f	.
=100	=100	=100	=100
2G\	2B\	2e\	1r
2F\	2A/	2d\	.
1A	1c	1f	1a
=101	=101	=101	=101
2E\	2B\	4e\	2g/
.	.	4d\	.
1F	1A	4c\	2f/
.	.	4B\	.
.	.	1A	1a
4E\	4G/	.	.
4D\	4F/	.	.
=102	=102	=102	=102
2C/	0G	1c	1e
1E	.	.	.
.	.	2B\	2r
2G\	.	[2e\	2g/
=103	=103	=103	=103
1F	1r	2e\]	1a
.	.	2d\	.
2.E\	1G	1e	1g
4D\	.	.	.
=104	=104	=104	=104
2C/	1A	2r	1cc
2AA/	.	2e\	.
1E	1G	2.g\	1b
.	.	4f\	.
=105	=105	=105	=105
1AA	1c	4e\	2a/
.	.	4d\	.
.	.	1e	1a
1r	1B	.	.
.	.	2d\	2g#i/
=106	=106	=106	=106
2r	1A	2e\	1a
1D	.	2f\	.
.	2A/	2F/	2r
2C/	2A/	[2A/	2a/
=107	=107	=107	=107
1BB	1d	2A/]	1b
.	.	2G/	.
1AA	2c\	2A/	2cc\
.	2f\	[2c\	4a/
.	.	.	4b\
=108	=108	=108	=108
2A\	2e\	4c\]	4cc\
.	.	4B\	4a/
2B\	2d\	2G/	1dd
1A	1e	1c	.
.	.	.	2cc#i\
=109	=109	=109	=109
0D	0d	1A	[0dd
.	.	1B	.
=110	=110	=110	=110
1D	1r	1A	0dd]
2D\	1A	1r	.
2E\	.	.	.
=111	=111	=111	=111
2F\	2A/	0r	0r
2G\	2B\	.	.
2A\	2c\	.	.
2F\	2d\	.	.
=112	=112	=112	=112
1E	2e\	0r	0r
.	2c\	.	.
2r	1B	.	.
2E\	.	.	.
=113	=113	=113	=113
2G\	2r	0r	0r
2G\	2B\	.	.
2F\	2d\	.	.
2D\	2d\	.	.
=114	=114	=114	=114
1A	2c\	0r	0r
.	2A/	.	.
1G	2e\	.	.
.	2e\	.	.
=115	=115	=115	=115
1.G	4d\	0r	0r
.	4c\	.	.
.	4e\	.	.
.	4d\	.	.
.	4e\	.	.
.	4d\	.	.
2G\	4c\	.	.
.	4B\	.	.
=116	=116	=116	=116
2F\	2A/	0r	0r
4E\	1d	.	.
4D\	.	.	.
1E	.	.	.
.	2c#i\	.	.
=117	=117	=117	=117
[0D	[0d	0r	2r
.	.	.	1f
.	.	.	2d/
=118	=118	=118	=118
0D]	0d]	1r	1d
.	.	[1f	1a
=119	=119	=119	=119
0r	0r	2f\]	2a/
.	.	2d\	2f/
.	.	1d	1f
=120	=120	=120	=120
0r	0r	1a	1.cc
.	.	2a\	.
.	.	[2f\	2a/
=121	=121	=121	=121
0r	0r	2f\]	2a/
.	.	2d\	2dd\
.	.	2g\	2b\
.	.	2e\	2cc\
=122	=122	=122	=122
0r	0r	2f\	2dd\
.	.	2g\	2.b\
.	.	2.e\	.
.	.	.	4g/
.	.	.	2g/
.	.	4c\	.
=123	=123	=123	=123
0r	0r	2c\	2cc\
.	.	2f\	2a/
.	.	2d\	2b\
.	.	2e\	2g/
=124	=124	=124	=124
0r	0r	2A/	2a/
.	.	1d	4g/
.	.	.	4f/
.	.	.	4e/
.	.	.	4d/
.	.	2c#i\	2e/
=125	=125	=125	=125
1r	1r	1d	1d
[1AA	[1c	[1e	[1a
=126	=126	=126	=126
1AA]	1c]	1e]	1a]
1AA	1c	1e	1a
=127	=127	=127	=127
1AA	1c	1e	1a
1AA	1c	1e	1a
=128	=128	=128	=128
1.E	1.B	1.e	1.g
2AA/	2A/	2c\	2e/
=129	=129	=129	=129
1AA	2A/	1c	0e
.	1c	.	.
1C	.	1G	.
.	2c\	.	.
=130	=130	=130	=130
0BB-i	0d	0B-	1.f
.	.	.	4e/
.	.	.	4d/
=131	=131	=131	=131
0C	0c	0G	0e
=132	=132	=132	=132
1r	1r	1r	1r
1C	1G	1c	1e
=133	=133	=133	=133
2C/	2G/	2c\	2e/
1C	1G	1c	1e
2C/	2G/	2c\	2e/
=134	=134	=134	=134
1F	1A	1c	1a
1C	1c	1e	1g
=135	=135	=135	=135
0D	0A	0d	0f
=136	=136	=136	=136
0GG	0G	0B	1d
.	.	.	2r
.	.	.	[2d/
=137	=137	=137	=137
2r	1r	0r	2d/]
1D	.	.	2d/
.	2r	.	[1f
2D\	[2A/	.	.
=138	=138	=138	=138
1.F	2A/]	0r	2f/]
.	2A/	.	4e/
.	.	.	4d/
.	[1c	.	2c/
4E\	.	.	2f/
4D\	.	.	.
=139	=139	=139	=139
2C/	2c\]	0r	2e/
2F\	4B\	.	2c/
.	4A/	.	.
2E\	2G/	.	[1g
2C/	2c\	.	.
=140	=140	=140	=140
2G\	2B\	0r	1g]
2G\	2G/	.	.
1G	2B\	.	1e
.	2B\	.	.
=141	=141	=141	=141
1A	1c	0r	1f
2G\	2B\	.	2e/
2F\	[2A/	.	[2d/
=142	=142	=142	=142
1E	2A/]	0r	2d/]
.	2G/	.	2c#i/
[1D	1A	.	1d
=143	=143	=143	=143
1D]	0F	0A	0dd
[1D	.	.	.
=144	=144	=144	=144
1D]	1F	1A	1dd
1BB	1D	1G	1dd
=145	=145	=145	=145
1AA	1E	1A	0cc
1A	2r	1c	.
.	2A/	.	.
=146	=146	=146	=146
2G\	2B\	2d\	1r
2E\	2c\	1e	.
1F	2.A/	.	1a
.	.	2d\	.
.	4B\	.	.
=147	=147	=147	=147
1E	4c\	1e	2g/
.	4B\	.	.
.	1e	.	2e/
2r	.	1r	1f
2D\	2d\	.	.
=148	=148	=148	=148
1A	[0e	2r	2e/
.	.	2A/	2cc\
2G\	.	2B\	2b\
[2A\	.	2A/	[2cc\
=149	=149	=149	=149
2A\]	0e]	2c\	2cc\]
4G\	.	2d\	4b\
4F\	.	.	4a/
1E	.	1e	1g
=150	=150	=150	=150
1F	1c	2A/	1a
.	.	2f\	.
2F\	2c\	2f\	2a/
[2F\	[2c\	[2f\	[2a/
=151	=151	=151	=151
2F\]	2c\]	2f\]	2a/]
2E\	2c\	2g\	2g/
2F\	2c\	2f\	2a/
2C/	2c\	2e\	2e/
=152	=152	=152	=152
1D	1A	1d	1f
1A	1c	1e	[1a
=153	=153	=153	=153
2r	1.e	1.c	0a_
1AA	.	.	.
2AA/	2e\	2c\	.
=154	=154	=154	=154
1D	1d	1f	1a]
1C	1G	1e	1r
=155	=155	=155	=155
2r	1.G	1c	2r
2C/	.	.	1e
2C/	.	2c\	.
2C/	2G/	2c\	2e/
=156	=156	=156	=156
1F	1A	1d	1a
1E	1B	1e	1g
=157	=157	=157	=157
2r	1B	1e	2r
2E\	.	.	2g/
2E\	2B\	2e\	2g/
2E\	2B\	2e\	2g/
=158	=158	=158	=158
1A	1c	1f	1cc
1G	2.d\	1g	1b
.	4c\	.	.
=159	=159	=159	=159
1D	2d\	1f	2r
.	4A/	.	2a/
.	4B\	.	.
2C/	2c\	2e\	2a/
2D\	[2A/	[2f\	2a/
=160	=160	=160	=160
1BB	2A/]	2f\]	1dd
.	2G#i/	4e\	.
.	.	4d\	.
1AA	1A	2f\	1cc
.	.	[2e\	.
=161	=161	=161	=161
0r	0r	2e\]	2r
.	.	2e\	2g/
.	.	4f\	4a/
.	.	4e\	4g/
.	.	4d\	4f/
.	.	4c#i\	4e/
=162	=162	=162	=162
2r	2r	2d\	1d
2G\	2d\	2B\	.
4A\	4f\	4c\	1r
4G\	4e\	4B\	.
4F\	4d\	4A/	.
4E\	4c#i\	4G/	.
=163	=163	=163	=163
1D	1d	2A/	2r
.	.	2d\	2b\
1r	1r	2f\	2a/
.	.	2e\	2g/
=164	=164	=164	=164
1r	1r	2d\	2f/
.	.	2c#i\	2e/
2r	2r	2d\	2d/
2B\	2d\	2G/	2dd\
=165	=165	=165	=165
2A\	2A/	2c\	2cc\
2G\	2B\	2d\	2b\
2F\	2c\	2A/	2a/
2E\	2G/	2c\	2g/
=166	=166	=166	=166
1D	1A	1d	1f
[1GG	[1B-i	[1d	2g/
.	.	.	[2b-i\
=167	=167	=167	=167
1GG]	1B-]	1d]	2b-\]
.	.	.	4a/
.	.	.	4g/
1Dl	1Al	1dl	1fl
==	==	==	==
*-	*-	*-	*-
!!!RDF**kern: l=long note in original notation
!!!RDF**kern: i=editorial accidental
!!!ENC:	Jesse Rodin; Victoria Chang 2011/05/23
!!!END:	2011/05/23/
!!!EED:	Jesse Rodin
!!!EEV:	2011/10/20/
!!attribution-level@Jos: 3 (tricky)
!!!ONB:	Translated from MusicXML and edited on 2011/10/20/ by Craig Sapp
!!muse2ps: u^(2) @{OTL2}^C^@{COA}?\n@{SCT}^i2I150v90,90,90,150Q16
